X:340
T:Masquerade Royal.
C:John Malchair's Third Collection of Tunes
F:https://www.vwml.org/record/Malchair/3619/p34
F:www.vwml.org/topics/historic-dance-and-tune-books/Malchair
Z:Eric Conrad Jan 2020
N:NB1 No repeats in MS.  Assuming parts are repeated.
M:C|
L:1/8
K:Gm
P:A
|: "_NB1"G2A2 | B2G2 B2c2 | d4 d2cB | A2B2 c2d2 | B2G2 G2A2 |
B2G2 B2c2 | d4 d2cB | A2G2 A2^F2 | G4 :|
P:B
|: d2e2 | f2e2 f2g2 | f4 f2ed | c2d2 e2d2 | d4 dcde |
d4 c4 | B4 G2A2 | B2G2 B2c2 | d4 d2c2 |
A2B2 c2d2 | B2G2 G2A2 | B2G2 B2c2 | d4 d2cB | \
A2G2 A2^F2 | G4 :|

